assets/images/whatsapp.svg

<svg width="21" height="20" viewBox="0 0 21 20" fill="none" xmlns="http://www.w3.org/2000/svg">
<g clip-path="url(#clip0_109_4460)">
<path d="M10.7525 0H10.7475C5.23375 0 0.75 4.485 0.75 10C0.75 12.1875 1.455 14.215 2.65375 15.8612L1.4075 19.5763L5.25125 18.3475C6.8325 19.395 8.71875 20 10.7525 20C16.2662 20 20.75 15.5138 20.75 10C20.75 4.48625 16.2662 0 10.7525 0Z" fill="#4CAF50"/>
<path d="M16.5712 14.1212C16.3299 14.8025 15.3724 15.3675 14.6087 15.5325C14.0862 15.6437 13.4037 15.7325 11.1062 14.78C8.16744 13.5625 6.27494 10.5762 6.12744 10.3825C5.98619 10.1887 4.93994 8.80123 4.93994 7.36623C4.93994 5.93123 5.66869 5.23248 5.96244 4.93248C6.20369 4.68623 6.60244 4.57373 6.98494 4.57373C7.10869 4.57373 7.21994 4.57998 7.31994 4.58498C7.61369 4.59748 7.76119 4.61498 7.95494 5.07873C8.19619 5.65998 8.78369 7.09498 8.85369 7.24248C8.92494 7.38998 8.99619 7.58998 8.89619 7.78373C8.80244 7.98373 8.71994 8.07248 8.57244 8.24248C8.42494 8.41248 8.28494 8.54248 8.13744 8.72498C8.00244 8.88373 7.84994 9.05373 8.01994 9.34748C8.18994 9.63498 8.77744 10.5937 9.64244 11.3637C10.7587 12.3575 11.6637 12.675 11.9874 12.81C12.2287 12.91 12.5162 12.8862 12.6924 12.6987C12.9162 12.4575 13.1924 12.0575 13.4737 11.6637C13.6737 11.3812 13.9262 11.3462 14.1912 11.4462C14.4612 11.54 15.8899 12.2462 16.1837 12.3925C16.4774 12.54 16.6712 12.61 16.7424 12.7337C16.8124 12.8575 16.8124 13.4387 16.5712 14.1212Z" fill="#FAFAFA"/>
</g>
<defs>
<clipPath id="clip0_109_4460">
<rect width="20" height="20" fill="white" transform="translate(0.75)"/>
</clipPath>
</defs>
</svg>

<svg width="21" height="20" fill="none" xmlns="http://www.w3.org/2000/svg"><g clip-path="url(#a)"><path d="M10.752 0h-.005C5.235 0 .75 4.485.75 10c0 2.188.705 4.215 1.904 5.861l-1.246 3.715 3.843-1.229A9.913 9.913 0 0 0 10.752 20c5.514 0 9.998-4.486 9.998-10S16.266 0 10.752 0Z" fill="#4CAF50"/><path d="M16.571 14.121c-.241.681-1.199 1.246-1.962 1.412-.523.11-1.205.2-3.503-.753-2.939-1.217-4.831-4.204-4.979-4.397-.14-.194-1.187-1.582-1.187-3.017 0-1.435.729-2.134 1.022-2.434.242-.246.64-.358 1.023-.358.124 0 .235.006.335.011.294.012.441.03.635.494.241.581.829 2.016.899 2.163.07.148.142.348.042.542-.094.2-.176.288-.324.458-.147.17-.287.3-.435.483-.135.159-.287.329-.117.622.17.288.757 1.247 1.622 2.017 1.117.993 2.022 1.311 2.345 1.446.242.1.53.076.705-.111.224-.242.5-.642.782-1.035.2-.283.452-.318.717-.218.27.094 1.699.8 1.993.947.293.147.487.217.558.34.07.124.07.706-.17 1.388Z" fill="#FAFAFA"/></g><defs><clipPath id="a"><path fill="#fff" transform="translate(.75)" d="M0 0h20v20H0z"/></clipPath></defs></svg>
